X: 0
T: Ecce novum gaudium
L: 1/4
M: 4/4
Q: 1/4=130
K: C
[V: P1]  G G A B | c B A2 | B G A F | G2 G2 | G A B c | d c B2 | c A B G | G2 G2 | B B c c | d2 d2 | d e d c | d2 B2 | B B c B | A2 B2 | B G A F | G2 G2|]

